assets/icons/archive.svg

<svg width="24" height="25" viewBox="0 0 24 25" fill="none" xmlns="http://www.w3.org/2000/svg">
<path d="M20.2941 7.63735C20.2941 6.24568 19.9461 5.19345 19.2953 4.49259C18.6533 3.80128 17.6155 3.34351 16.0002 3.34347H7.99978C6.38457 3.34351 5.34676 3.80128 4.70474 4.49259C4.05395 5.19345 3.70593 6.24568 3.70589 7.63735V17.6376C3.70589 19.0294 4.05391 20.0814 4.70474 20.7823C5.34675 21.4737 6.38447 21.9314 7.99978 21.9315H16.0002C17.6155 21.9314 18.6533 21.4737 19.2953 20.7823C19.9461 20.0814 20.2941 19.0294 20.2941 17.6376V7.63735ZM21.7059 17.6376C21.7059 19.2457 21.304 20.6935 20.33 21.7426C19.3471 22.8011 17.8847 23.3432 16.0002 23.3432H7.99978C6.11535 23.3432 4.65297 22.8011 3.67005 21.7426C2.69606 20.6935 2.29413 19.2457 2.29413 17.6376V7.63735C2.29417 6.02931 2.69602 4.58139 3.67005 3.53235C4.65297 2.47381 6.11535 1.93175 7.99978 1.9317H16.0002C17.8847 1.93175 19.3471 2.47381 20.33 3.53235C21.304 4.58139 21.7059 6.02931 21.7059 7.63735V17.6376Z" fill="#111111"/>
<path d="M15.5005 1.93173L15.5722 1.93518C15.9283 1.9712 16.2064 2.27204 16.2064 2.63761V10.4974C16.2064 11.5682 14.9459 12.0796 14.1859 11.3908L14.1818 11.3867L12 9.37383L9.81896 11.3867L9.81413 11.3908C9.05414 12.0793 7.79437 11.5681 7.79437 10.4974V2.63761L7.79782 2.56523C7.83405 2.20938 8.13484 1.93173 8.50025 1.93173H15.5005ZM9.20614 10.0301L11.1818 8.20885C11.642 7.77963 12.358 7.77978 12.8183 8.20885H12.819L14.7946 10.0308V3.3435H9.20614V10.0301Z" fill="#111111"/>
<path d="M17.4995 13.9317L17.5719 13.9352C17.9278 13.9713 18.2054 14.2721 18.2054 14.6376C18.2054 15.0031 17.9278 15.3039 17.5719 15.3401L17.4995 15.3435H13.2497C12.8599 15.3435 12.5438 15.0275 12.5438 14.6376C12.5438 14.2478 12.8599 13.9317 13.2497 13.9317H17.4995Z" fill="#111111"/>
<path d="M17.5002 17.9317L17.5719 17.9351C17.928 17.9712 18.2061 18.272 18.2061 18.6376C18.2061 19.0032 17.928 19.304 17.5719 19.34L17.5002 19.3435H9.00001C8.61016 19.3435 8.29413 19.0274 8.29413 18.6376C8.29413 18.2477 8.61016 17.9317 9.00001 17.9317H17.5002Z" fill="#111111"/>
</svg>

<svg xmlns="http://www.w3.org/2000/svg" width="24" height="25" fill="none" viewBox="0 0 24 25"><path fill="#111" d="M20.294 7.637c0-1.391-.348-2.444-.999-3.144-.642-.692-1.68-1.15-3.295-1.15H8c-1.615 0-2.653.458-3.295 1.15-.651.7-1 1.753-1 3.144v10c0 1.392.349 2.444 1 3.145.642.692 1.68 1.15 3.295 1.15h8c1.616 0 2.653-.458 3.295-1.15.651-.7 1-1.753 1-3.144zm1.412 10c0 1.609-.402 3.057-1.376 4.106-.983 1.058-2.445 1.6-4.33 1.6H8c-1.885 0-3.347-.542-4.33-1.6-.974-1.05-1.376-2.497-1.376-4.105v-10c0-1.609.402-3.057 1.376-4.106.983-1.058 2.445-1.6 4.33-1.6h8c1.885 0 3.347.542 4.33 1.6.974 1.05 1.376 2.497 1.376 4.105z"/><path fill="#111" d="m15.5 1.932.072.003a.706.706 0 0 1 .634.703v7.86c0 1.07-1.26 1.582-2.02.893l-.004-.004L12 9.374l-2.181 2.013-.005.004c-.76.688-2.02.177-2.02-.894v-7.86l.004-.072a.706.706 0 0 1 .702-.633zM9.207 10.03l1.976-1.821c.46-.43 1.176-.43 1.636 0h.001l1.976 1.822V3.344h-5.59zm8.293 3.902.072.003a.706.706 0 0 1 0 1.405l-.072.004h-4.25a.706.706 0 0 1 0-1.412zm0 4 .072.003a.706.706 0 0 1 0 1.405l-.072.003H9a.706.706 0 0 1 0-1.411z"/></svg>
